img/partners/it-arena.svg

<svg xmlns="http://www.w3.org/2000/svg" width="115.574" height="80" viewBox="0 0 115.574 80"><path fill="#0BA7B0" d="M115.574 52.01c-.839-33.434-26.38-52.01-57.787-52.01s-56.948 18.576-57.787 52.01c38.286-6.493 77.288-6.493 115.574 0z"/><path fill="#22BDBD" d="M107.869 52.01c-.727-33.434-22.862-52.01-50.082-52.01s-49.355 18.576-50.082 52.01c33.181-6.493 66.983-6.493 100.164 0z"/><path fill="#49C2C3" d="M100.164 52.01c-.615-33.434-19.345-52.01-42.377-52.01s-41.762 18.576-42.377 52.01c28.076-6.493 56.677-6.493 84.754 0z"/><path fill="#5EC6C8" d="M92.459 52.01c-.503-33.434-15.828-52.01-34.672-52.01s-34.169 18.576-34.672 52.01c22.972-6.493 46.372-6.493 69.344 0z"/><path d="M0 60.265h3.349v19.735h-3.349v-19.735zm17.975 3.017h-4.208v16.718h-3.32v-16.718h-4.207v-3.017h11.735v3.017zm21.895 14.434h-7.041l-.859 2.284h-3.606l7.986-20.299 8.014 20.299h-3.606l-.888-2.284zm-5.953-2.847h4.866l-2.433-6.851-2.433 6.851zm18.746-3.101h-2.719v8.232h-3.349v-19.735h6.669s6.698 0 6.698 5.751c0 3.186-2.061 4.595-3.864 5.244l4.093 8.74h-3.692l-3.836-8.232zm-2.719-3.27h3.32s3.349 0 3.349-2.481c0-2.453-3.349-2.453-3.349-2.453h-3.32v4.934zm17.173-4.935v4.934h8.329v3.27h-8.329v4.934h10.018v3.299h-13.367v-19.735h13.367v3.298h-10.018zm30.168 16.437h-3.378l-9.961-14.04v14.04h-3.349v-19.735h3.378l9.989 14.04v-14.04h3.32v19.735zm13.795-2.284h-7.041l-.859 2.284h-3.606l7.986-20.299 8.014 20.299h-3.606l-.888-2.284zm-5.953-2.847h4.866l-2.433-6.851-2.433 6.851z" fill="#3A3B3B"/></svg>

<svg xmlns="http://www.w3.org/2000/svg" width="115.574" height="80" viewBox="0 0 115.574 80"><path fill="#0BA7B0" d="M115.574 52.01C114.734 18.576 89.194 0 57.787 0S.84 18.576 0 52.01c38.286-6.493 77.288-6.493 115.574 0z"/><path fill="#22BDBD" d="M107.87 52.01C107.14 18.576 85.006 0 57.786 0S8.432 18.576 7.706 52.01c33.18-6.493 66.982-6.493 100.163 0z"/><path fill="#49C2C3" d="M100.164 52.01C99.55 18.576 80.82 0 57.787 0S16.025 18.576 15.41 52.01c28.076-6.493 56.677-6.493 84.754 0z"/><path fill="#5EC6C8" d="M92.46 52.01C91.955 18.576 76.63 0 57.786 0s-34.17 18.576-34.672 52.01c22.972-6.493 46.372-6.493 69.344 0z"/><path d="M0 60.265h3.35V80H0V60.265zm17.975 3.017h-4.208V80h-3.32V63.282H6.24v-3.017h11.735v3.017zM39.87 77.716h-7.04L31.97 80h-3.606l7.986-20.3L44.364 80h-3.606l-.888-2.284zm-5.953-2.847h4.866l-2.433-6.853-2.433 6.85zm18.746-3.103h-2.72V80h-3.348V60.265h6.67s6.697 0 6.697 5.75c0 3.187-2.06 4.596-3.864 5.245L60.19 80H56.5l-3.837-8.232zm-2.72-3.27h3.32s3.35 0 3.35-2.48c0-2.454-3.35-2.454-3.35-2.454h-3.32v4.934zm17.174-4.935v4.934h8.33v3.27h-8.33V76.7h10.018V80H63.768V60.265h13.367v3.298H67.117zM97.285 80h-3.378l-9.96-14.04V80h-3.35V60.265h3.378l9.99 14.04v-14.04h3.32V80zm13.795-2.284h-7.04L103.18 80h-3.606l7.986-20.3 8.014 20.3h-3.606l-.888-2.284zm-5.953-2.847h4.866l-2.433-6.853-2.433 6.85z" fill="#3A3B3B"/></svg>
